X:1
T:12 ÉTUDES
T:12 ÉTUDES
T:Op. 10 No. 3
T:F. Chopin
C:F. Chopin
%%score { ( 1 3 4 ) | ( 2 5 ) }
L:1/8
Q:1/4=100
M:2/4
K:E
V:1 treble nm="Piano" snm="Pno."
V:3 treble 
V:4 treble 
V:2 bass 
V:5 bass 
V:1
"^Lento, ma non troppo."!p! (!2!B, |!<(! !5!E!3!D/!4!E/)!<)! (F2- | %2
!<(! F/G/!<)!!>(! G/!4!F/)!>)! (!>![EG-]2 | %3
!<(! G/!5!A/!<)!!>(! !4!A/!3!G/)!>)!!>(! (!5!c>!5!B!>)! | !5!A/!4!G/!2!D/!3!E/) (!>!!4!F2- | %5
!<(! F/G/!<)!!>(! G/!4!F/!>)! !>!!5!E2) |!<(! (!4!G/A/F/!4!G/!<)! !4!A/B/G/A/ | %7
 c) (!>!!3!F2{/^A} (!>!G/F/-) | F{/^A}G/F/"^ten.""_riten." !>![DB]2) | %9
"^a tempo"!p! (!4!!5![EG]!3!D/!4!E/) (!5!!4!F2 |!<(! F/G/!<)!!>(! G/!4!F/)!>)! (!>![EG]2 | %11
!<(! G/!5!A/!<)!!>(! !4!A/!3!G/)!>)!!>(! (!5!c>!5!B!>)! | !5!A/!4!G/!2!D/!3!E/) (!>!!4!F2- | %13
!<(! F/G/!<)!!>(! G/!4!F/!>)! !>!!5!E2) | (!4!B/c/) (c/B/) (!4!A/B/!3!G/A/) | %15
"_stretto" (!4!^d/e/) (e/d/) (!4!c/d/!3!^B/c/) | %16
 (.[E^Ae]/.[FAf]/"_ritenuto".!4![DAd]/.[EAe]/ .[FAf]/.[GAg]/.[EAe]/.[FAf]/) | %17
"^ten."!ff! (!4!!5![eg-]2!>(! g/!4!f/!5!e/!>)!!4!c/ |"^ten." !5!d2) (!5!e/!4!d/!3!c/!2!G/ | %19
"^ten." !5!B2) (!5!c/!5!B/!4!A/!2!E/ | (10:8:3!>!!5!G4- G/F/ | %21
 !3!E2)!p!"^poco più animoto" (!>!!2!!5![Ge]/!1!!4![Fd]/[Ge]/!1!!3![DB]/ | %22
 !2!!5![Fd]/[Ec]/[Fd]/!1!!3![DG]/ !5!B/^A/c | %23
{/!4!^A} !1!!3![EG]/!1!!2![DF]/{/A}[EG]/[DF]/)!p! (!2!!5![Ge]/[Fd]/[Ge]/!1!!3![DB]/ | %24
 !2!!5![Fd]/[Ec]/[Fd]/!1!!3![DG]/ !5!B/^A/c | %25
{/!4!^A} !1!!3![EG]/!1!!2![DF]/{/A}[EG]/[DF]/)!>(! (!2!!5![=Af]/[Ge]/[Af]/!>)!!1!!3![Ec]/ | %26
 !2!!5![Ge]/[Fd]/[Ge]/!1!!3![E^A]/ !5!c/!4!^B/!5!d | %27
!<(!{/!3!=B} !2!!4![FA]/!1!!3![EG]/{/B}[FA]/!<)![EG]/)!>(! (!2!!5![Af]/[Ge]/[Af]/!>)!!1!!3![Ec]/ | %28
 [Ge]/[Fd]/[Ge]/!1!!3![E^A]/ !5!c/^B/!5!d | %29
!>(!{/!3!=B} !2!!4![FA]/!1!!3![EG]/{/B}[FA]/!>)![EG]/!<(!{/B} [FA]/!<)![EG]/[FA]/[GB]/) | %30
!f! (!4!!5![Ac]>[Ac] [GB]>[GB]) |!p! (!4!!5![A=c]>[Ac] !3!!5![GB]>[GB]) | %32
!f! !wedge![^CEB^c]/!p!!<(! (!3!!5![ce]/!1!!2![=GB]/) (!1!!2![Bc]/!4!!5![e=g]/)"_cresc." (!3!!5![gb]/!1!!2![ce]/) (!1!!2![eg]/ | %33
 !4!!5![bc']/) (!5!!3![c'e']/[=gb]/) (!1!!2![bc']/!<)!!4!!5![e'=g']/)!f!!>(! (.[^Ag]/.[Af]/!>)!.[Ae]/) | %34
!f! (!5!!4![Bd]>[Bd] !3!!5![^Ac]>[Ac]) |!p! (!5!!4![B=d]>[Bd] !3!!5![^Ac]>[Ac]) | %36
!f! !wedge![^DFc^d]/!p!!<(! (!3!!5![df]/[=Ac]/) (!1!!2![cd]/[fa]/)"_cresc." (!3!!5![ac']/[df]/) (!1!!2![fa]/ | %37
[c'd']/) (!5!!3![d'f']/[ac']/) (!1!!2![c'd']/!<)![f'a']/)!f!!>(! (.[^Ba]/.[Bg]/!>)!.!3![Bf]/) | %38
 .!4![=B^e]/!p! (!5!!2![G=d]/!1!!3![=Gc]/!2!!5![=cf]/ !1!!3![B^e]/!5!!2![=e^a]/"_cresc."!1!!3![^d=a]/!2!!5![^g=d']/ | %39
 .!1!!4![=g^c']/)!p! (!5!!2![=Gc]/!1!!3![^F=c]/!2!!5![B=f]/ !1!!3![^Ae]/!5!!2![^d=a]/"_cresc."!1!!3![=d^g]/!2!!5![=g^c']/ | %40
 .!1!!4![^f=c']/)!<(! (!5!!2![^F=c]/!1!!3![=FB]/!2!!5![^Ae]/ !1!!3![=A^d]/!5!!2![=d^g]/!1!!3![^c=g]/!2!!5![^f=c']/ | %41
 !1!!3![=fb]/!2!!5![^ae']/!1!!3![=a^d']/!8va(!!5!!2![=d'^g']/ !1!!3![^c'=g']/!2!!5![^f'=c'']/!1!!3![^e'b']/!2!!5![^a'=e'']/!<)! | %42
!ff! .!1!!4![b'^d'']/) (!5!!2![d'b']/!1!!3![=af']/)!8va)! z ([DB]/[=A,F]/) z/ | %43
 z/!<(! [A,EFA]/[B,EFB]/[=CEF=c]/!<)! [B,EFB]/[A,EFA]/[B,EFB]/[CEFc]/ | %44
 !wedge![B,DFB]/!8va(! ((!5!!2![a'd'']/!1!!3![d'b']/))!8va)! z ([Ad]/[DB]/) z/ | %45
 z/ [A,EFA]/[B,EFB]/[=CEF=c]/ [B,EFB]/[A,EFA]/[B,EFB]/[Fcef]/ | %46
!f! !wedge![FBdf]/ (!2!!5![=d'b']/!1!!3![g=f']/) (!1!!3![=fd']/!5!!2![bg']/) ((!2!!5![=c'a']/!1!!3![^f^d']/)) ((!1!!3![^d=c']/ | %47
 [af']/)) ([=c'a']/[fd']/) (!3![=f=d']/[bg']/) ([^a=g']/[e^c']/) ((!3![^d=c']/ | %48
[=af']/)) (([g=f']/[=db]/)) ([^d=c']/[a^f']/) ([bg']/[=f=d']/) (!3![=db]/ | %49
[g=f']/) ([bg']/[=f=d']/) ((!3![ec']/[^a=g']/)) (([=a^f']/[^d=c']/)) (((!3![=db]/ | %50
 [^g=f']/))) ((([bg']/[=f=d']/))) (([=db]/[gf']/)) (([a^f']/[^d=c']/)) ((!3![=ca]/ | %51
[fd']/))"_cresc." (([af']/[d=c']/)) (!3![=db]/[g=f']/) ([=ge']/[^c^a]/) (!3![=c=a]/ | %52
[^f^d']/) ([=f=d']/[B^g]/) (!3![^A=g]/[e^c']/) ([Ag]/[ec']/) ([Ag]/ | %53
 [e=c']/)"_ritenuto" (!3![^A^f]/[e=c']/) ([Af]/[ec']/)"_cresc." ([=Af]/[ec']/) ([Af]/ | %54
!f![db]/) z/!p! (!5!B/G/"_legatissimo" B/A/!>!!3 4!F-) | F"^tempo"(!5!B/G/ B/A/!>!!3 4!F-) | %56
"_sempre" F(G/!4!F/!p! !5!F/E/!>!!3!C) | (!5!E/!3!D/!>!G/!4!F/ !5!F/E/!>!!3!C) | %58
 (!5!E/!>!!4!D!3!C/)"_dim." (E/!>!DC/) | (E/!>!DC/) (E/!>!DC/) | %60
 (E/[B,D]/[F,E]/"^smorzando e rallent."[B,D]/ [F,E]/[CD]/[F,E]/[CD]/ | %61
 [F,E]/[A,D]/[F,E]/[A,D]/ [F,E]/[B,D]/[F,C]/[B,D]/) |"^tempo I"!p! (!5!E!3!D/!4!E/) (!5 4!F2- | %63
 F/G/ G/!4!F/) ([EG-]2 |!<(! G/!3!A/ !4!A/!<)!!3!G/)!>(! (!>!!5!c>!>)!!5!B | %65
 !5!A/!4!G/!2!D/!3!E/) (!>!!4!F2- |!<(! F/G/!<)!!>(! G/!4!F/!>)! !>!!5!E2) | %67
 (!4!B/c/) (c/B/) (!4!A/B/!3!G/A/) |"_cresc." (!4!^d/e/) (e/d/) (!4!c/d/!3!^B/c/) | %69
!<(! (.[E^Ae]/.[FAf]/.!4![DAd]/.[EAe]/!<)!"_cresc." .[FAf]/.[GAg]/.[EAe]/.[FAf]/) | %70
!f! !4!!5![eg-]2!>(! (g/!4!f/!5!e/!>)!!4!c/ | !5!d2)"_dim." (!5!e/!4!d/!3!c/!2!G/ | %72
 !>!!5!B2) (!5!c/!5!B/!4!A/!2!E/ |!pp! !5!G2-) G/(!4!F/!3!E/!2!=C/ | !5!G2-) G/(F/E/=C/ | G4-) | %76
 G2- (G/.!4!F/.!5!E/.!2!B,/ | !fermata!!4![G,E]4) |] %78
V:2
 z | !3!E,,/!>!B,,B,,/ B,,,/!>!B,,B,,/ | B,,,/!>!B,,B,,/ E,,/!>!B,,B,,/ | %3
 E,,/B,,B,,/ B,,,/B,,B,,/ | !3!E,,/B,,B,,/ B,,,/B,,B,,/ | B,,,/B,,B,,/ E,,/B,,B,,/ | %6
 E,,/E,E,/ !3!A,,/E,E,/ | !4!A,,/!1!F,F,/ !3!B,,/F,F,/ | !2!C,/F,F,/ !3!B,,/F,!2!F,/ | %9
 E,,/!1!B,,B,,/ B,,,/B,,B,,/ | B,,,/B,,B,,/ E,,/B,,B,,/ | E,,/B,,B,,/ B,,,/B,,B,,/ | %12
 !3!E,,/B,,B,,/ B,,,/B,,B,,/ | B,,,/B,,B,,/ E,,/B,,B,,/ | E,,/!>!E,E,/ !3!A,,/!>!E,E,/ | %15
 !4!!5!G,,/G,G,/ !3!C,/G,G,/ | %16
 !4![C,E,F,^A,]/[C,E,F,A,]/[C,E,F,A,]/[C,E,F,A,]/ !5![=C,E,F,A,]/[C,E,F,A,]/[C,E,F,A,]/[C,E,F,A,]/ | %17
 [B,,E,G,B,]4 | !2!F,/B,/B,,/B,/ !3!C,/G,/G,,/G,/ | !2!D,/G,/G,,/G,/ !3!A,,/E,/E,,/E,/ | %20
 !2!B,,/E,/E,,/E,/ B,,/E,/E,,/B,,/- | [B,,E,]2 z2 | .F,,/.^A,/.F,,/.B,/ .F,,/(!1!C/!2!B,/!1!A,/) | %23
 (B,,/F,/B,/) z/ z2 | .F,,/.^A,/.F,,/.B,/ .F,,/((!1!C/B,/!1!A,/)) | ((B,,/F,/B,/)) z/ z2 | %26
 .G,,/.^B,/.G,,/.C/ .G,,/(!1!D/C/!1!B,/) | (C,/G,/C/) z/ z2 | %28
 .G,,/.^B,/.G,,/.C/ .G,,/((!1!D/C/!1!B,/)) | (C,/G,/C/).!4!C,/ .B,,/.=D/.E,/.!4!B,,/ | %30
 z/ !>!E,<E, !>!E,/E, | z/ E,<E, E,/E, | %32
!ped! !wedge![=G,,=G,]/ (!5!!3![G,B,]/!1!!2![^CE]/)[K:treble] (!2!!1![E=G]/[B,C]/) (!5!!3![CE]/[GB]/) (!1!!2![Bc]/ | %33
 [E=G]/) (!3!!5![GB]/[ce]/) (!2!!1![e=g]/[Bc]/)!ped-up![K:bass] (.[F,CE]/.[F,CE]/.[F,CE]/) | %34
 !3!B,/ !>!!5!F,/!1!F,/-F, !>!F,/F, | z/ F,<F, F,/F, | %36
!ped! !wedge![=A,,=A,]/ (!5!!3![A,C]/[^DF]/)[K:treble] (!2!!1![FA]/[CD]/) (!5!!3![DF]/[Ac]/) (!1!!2![cd]/ | %37
[FA]/) (!3!!5![Ac]/[df]/) (!2!!1![fa]/[cd]/)!ped-up![K:bass] (.[G,DF]/.[G,DF]/.[G,DF]/) | %38
 .[G,=D^E]/ (!2!!1![=F,=B,]/!<(!!3!!1![=E,^A,]/!4!!1![^D,=A,]/ !2!!5![=D,^G,]/!1!!3![^C,=G,]/!2!!4![=C,^F,]/!<)!!1!!5![B,,=F,]/ | %39
 .!1!!3![^A,,E,]/) ((!2!!1![E,^A,]/!<(!!3!!1![^D,=A,]/!4!!2![=D,^G,]/ !1!!3![^C,=G,]/!2!!4![=C,^F,]/!1!!5![B,,=F,]/!<)!!1!!3![^A,,E,]/ | %40
 .!2!!4![=A,,^D,]/)) (!3!!1![D,=A,]/!4!!2![=D,G,]/!4!!1![^C,=G,]/ !2!!5![=C,^F,]/!1!!3![B,,=F,]/!2!!4![^A,,E,]/!1!!5![=A,,^D,]/ | %41
 !3!!1![G,,=D,]/!4!!2![G,,C,]/!3!!1![^F,,=C,]/!1!!4![=F,,B,,]/ !2!!5![E,,^A,,]/!1!!3![^D,,=A,,]/!2!!4![=D,,G,,]/!1!!5![^C,,^F,,]/ | %42
!ped! .!5!!2![B,,,F,,]/) z[K:treble] !1!!3![db]/!5!!2![=Af]/ z[K:bass] ([D,B,]/ | %43
[A,,F,]/)!ped-up! [=C,,=C,]/[B,,,B,,]/[A,,,A,,]/ [B,,,B,,]/[C,,C,]/[B,,,B,,]/[A,,,A,,]/ | %44
 !wedge![B,,,B,,]/ z[K:treble] ((!5!!2![fd']/!1!!3![Ba]/)) z[K:bass] ([F,D]/ | %45
 [B,,A,]/) [=C,,=C,]/[B,,,B,,]/[A,,,A,,]/ [B,,,B,,]/[C,,C,]/[B,,,B,,]/[A,,,A,,]/ | %46
 !wedge![B,,,B,,]/[K:treble]!ped! (!2!!5![=DB]/!1!!3![G=f]/) (!1!!3![=F=d]/!2!!5![B,G]/)!ped-up!!ped! ((!2!!5![=CA]/!1!!3![^F^d]/)) ((!1!!3![^D=c]/ | %47
 [A,F]/)) ([=CA]/[Fd]/)!ped-up!!ped! (!3![=F=d]/[B,G]/)!ped-up!!ped! ([^A,=G]/[E^c]/)!ped-up!!ped! ((!3![^D=c]/ | %48
[=A,F]/)) (([G,=F]/[=DB]/)) ([^D=c]/[A,^F]/)!ped-up!!ped! ([B,G]/[=F=d]/) (!3![=DB]/ | %49
[G,=F]/) ([B,G]/[F=d]/)!ped-up!!ped! ((!3![E^c]/[^A,=G]/))!ped-up!!ped! (([=A,^F]/[^D=c]/))!ped-up!!ped! (((!3![=DB]/ | %50
 [^G,=F]/))) ((([B,G]/[F=d]/))) ((!3![=DB]/[G,F]/))!ped-up!!ped! (([A,^F]/[^D=c]/)) ((!3![=CA]/ | %51
[F,D]/)) (([A,F]/[D=c]/))!ped-up!!ped! (!3![=DB]/[G,=F]/)!ped-up!!ped! ([=G,E]/[^C^A]/)!ped-up!!ped! (!3![=C=A]/ | %52
[^F,^D]/)!ped-up!!ped! ([=F,=D]/[B,^G]/)!ped-up![K:bass]!ped! (!3![^A,=G]/[E,^C]/) ([A,G]/[E,C]/)!ped-up!!ped! ([A,G]/ | %53
 [E,=C]/)!ped-up!!ped! (!3![^A,^F]/[E,=C]/) ([A,F]/[E,C]/)!ped-up!!ped! ([=A,F]/[E,C]/)!ped-up!!ped! ([A,F]/ | %54
[B,,B,]/)!ped-up! z/ (!2!E,A,,) (!>!!3!=C, |B,,) (3(!3!E,/!1!F,/!2!E,/.A,,) ((!>!!3!=C, | %56
B,,)) (!5!B,,,!2!E,,) !>!!1!B,,- | B,, (3(!4!B,,,/!3!C,,/!5!B,,,/.!2!E,,) !>!!1!B,,- | %58
 B,, (3(!4!E,,/!2!F,,/!3!E,,/.B,,,) B,,- | B,, (3(!4!E,,/!2!F,,/!3!E,,/.B,,) z | %60
 z2 z (3(!3!F,,/!1!G,,/!2!F,,/ | B,,,2) z2 | E,,/B,,B,,/ B,,,/B,,B,,/ | B,,,/B,,B,,/ E,,/B,,B,,/ | %64
 E,,/B,,B,,/ B,,,/B,,B,,/ | E,,/B,,B,,/ B,,,/B,,B,,/ | B,,,/B,,B,,/ E,,/B,,B,,/ | %67
 !5!E,,/E,E,/ !3!A,,/E,E,/ | !5!G,,/G,G,/ !3!C,/G,G,/ | %69
 !4![C,E,F,^A,]/[C,E,F,A,]/[C,E,F,A,]/[C,E,F,A,]/ !5![=C,E,F,A,]/[C,E,F,A,]/[C,E,F,A,]/[C,E,F,A,]/ | %70
 [B,,E,G,B,]4 | !2!F,/B,/B,,/B,/ !3!C,/G,/G,,/G,/ | !2!D,/G,/G,,/G,/ !3!A,,/E,/E,,/E,/ | %73
 !2!B,,/E,/E,,/E,/ !2!=C,/E,/E,,/E,/ | !3!B,,/E,/E,,/E,/ !2!=C,/E,/E,,/E,/ | %75
 !3!B,,/E,/E,,/E,/ !2!B,,/E,/E,,/E,/ | B,,/E,/E,,/E,/ B,,/E,/E,,/B,,/- | !fermata![E,,B,,]4 |] %78
V:3
 x | !1!G,/!2!B,/G,/B,/ !1!A,/!2!B,/A,/B,/ | A,/B,/A,/B,/ G,/B,/G,/B,/ | %3
 G,/!2!E/!1!B,/!2!E/ !1!D/!4!A/!1!B,/!2!D/ | %4
 !1!B,/!3!E/!1!G,/!1!B,/ (!1!!2![A,C]/!<(![B,D]/[A,C]/[B,D]/!<)! | %5
 [A,C]/[B,D]/[A,C]/[B,D]/) G,/B,/G,/B,/ | !1!=D/E/D/!2!E/ !1!C/E/C/E/ | %7
 C/E/C/E/"_stretto" B,/E/B,/E/ | ^A,/E/A,/E/ =A,/B,/A,/B,/ | %9
 !1!G,/!<(!!2!B,/G,/!<)!B,/ !1!A,/!2!B,/A,/B,/ | A,/B,/A,/B,/ G,/B,/G,/B,/ | %11
 G,/!2!E/!1!B,/!2!E/ !1!D/!4!A/!1!B,/!2!D/ | %12
 !1!B,/!3!E/!1!G,/!1!B,/ ((!1!!2![A,C]/[B,D]/[A,C]/[B,D]/ | %13
 [A,C]/[B,D]/[A,C]/[B,D]/)) G,/B,/G,/B,/ | [=DF]/[EG]/[DF]/[EG]/ C/E/C/E/ | %15
 [F^B]/G/[F^A]/[GB]/ E/G/E/G/ | x4 | !1!G/B/!2!G/B/ G/B/G/!3!B/ | !1!D/!2!F/D/F/ E/G/E/G/ | %19
 B,/D/B,/D/ C/E/C/E/ | G,/"_rall."B,/G,/B,/!pp! G,/B,/G,/B,/ | G,2 x2 | x2 !1!EG/F/ | x4 | %24
 x2 !1!EG/F/ | x4 | x2 !2!F!1!=A/!3!G/ | x4 | x2 !2!F!1!=A/!3!G/ | x4 | %30
 z/ !1!!2![CE]<!1!!2![=DF] [DF]/[DE] | z/ [=CE]<[=D=F] [DF]/[DE] | x4 | x4 | %34
 z/ !1!!2![DF]<!1!!2![E^G] [EG]/[EF] | z/ [=DF]<[E=G] [E^G]/[EF] | x4 | x4 | x4 | x4 | x4 | %41
 x3/2!8va(! x5/2 | x3/2!8va)! x5/2 | x4 | x/!8va(! x!8va)! x5/2 | x4 | x4 | x4 | x4 | x4 | x4 | %51
 x4 | x4 | x4 | x =D/E/ C/E/A,/!3!E/ | !1!A,/!2!^D/!1!=D/E/ C/E/A,/E/ | %56
 A,/^D/A,/B,/ G,/B,/=G,/B,/ | F,/B,/A,/B,/ ^G,/B,/=G,/B,/ | F,/B,/!>!=G,/B,/ F,/B,/!>!G,/B,/ | %59
 F,/B,/!>!=G,/B,/ F,/B,/!>!G,/B,/ | x4 | x4 | G,/B,/G,/B,/ A,/B,/A,/B,/ | %63
 A,/B,/A,/B,/ G,/B,/G,/B,/ | G,/!2!E/!1!B,/!2!E/ !1!D/!4!A/!1!B,/!2!D/ | %65
 !1!B,/!3!E/!1!G,/!1!B,/ !1!!2![A,C]/[B,D]/[A,C]/[B,D]/ | [A,C]/[B,D]/[A,C]/[B,D]/ G,/B,/G,/B,/ | %67
 [=DF]/[EG]/[DF]/[EG]/ C/E/C/E/ | [F^B]/G/[F^A]/[GB]/ E/G/E/G/ | x4 | !1!G/!2!B/G/B/ G/B/G/!3!B/ | %71
 !1!D/F/D/F/ E/G/E/G/ | B,/D/B,/D/ C/E/C/E/ | G,/!2!B,/G,/B,/ A,/=C/A,/C/ | %74
 G,/B,/G,/B,/ A,/=C/A,/C/ | G,/B,/G,/B,/ G,/B,/G,/B,/ | G,/B,/G,/B,/ G,/B,/G,/B,/ | x4 |] %78
V:4
 x | x2 D2- | D D x2 | x4 | x4 | x4 | x4 | x4 | x4 | x2 D2 | D D x2 | x4 | x4 | x4 | x4 | x4 | x4 | %17
 x4 | x4 | x4 | x4 | x4 | x4 | x4 | x4 | x4 | x4 | x4 | x4 | x4 | x4 | x4 | x4 | x4 | x4 | x4 | %36
 x4 | x4 | x4 | x4 | x4 | x3/2!8va(! x5/2 | x3/2!8va)! x5/2 | x4 | x/!8va(! x!8va)! x5/2 | x4 | %46
 x4 | x4 | x4 | x4 | x4 | x4 | x4 | x4 | x4 | x4 | x4 | x4 | x3 =G, | F, x2 =G, | F, x3 | x4 | %62
 x2 D2- | D D x2 | x4 | x4 | x4 | x4 | x4 | x4 | x4 | x4 | x4 | x4 | x4 | x4 | x4 | x4 |] %78
V:5
 x | E,,2 B,,,2 | B,,,2 !3!E,,2 | E,,2 B,,,2 | E,,2 B,,,2 | B,,,2 !3!E,,2 | !5!E,,2 A,,2 | %7
 A,,2 B,,2 | C,2 B,,2 | !5!!3!E,,2 B,,,2 | B,,,2 !3!E,,2 | E,,2 B,,,2 | E,,2 B,,,2 | %13
 B,,,2 !3!E,,2 | !5!E,,2 A,,2 | G,,2 C,2 | x4 | x4 | x4 | x4 | x3 E,,- | E,,2 x2 | x4 | x4 | x4 | %25
 x4 | x4 | x4 | x4 | x4 | !5!!3!A,,>E,, B,,>E,, | A,,>E,, B,,>E,, | x3/2[K:treble] x5/2 | %33
 x5/2[K:bass] x3/2 | x F,/F,,/ !2!C,>F,, | B,,>F,, C,>F,, | x3/2[K:treble] x5/2 | %37
 x5/2[K:bass] x3/2 | x4 | x4 | x4 | x4 | x3/2[K:treble] x2[K:bass] x/ | x4 | %44
 x3/2[K:treble] x2[K:bass] x/ | x4 | x/[K:treble] x7/2 | x4 | x4 | x4 | x4 | x4 | %52
 x3/2[K:bass] x5/2 | x4 | x4 | x4 | x4 | x4 | x4 | x4 | x4 | x4 | !3!E,,2 B,,,2 | B,,,2 !3!E,,2 | %64
 E,,2 B,,,2 | !3!E,,2 B,,,2 | B,,,2 !3!E,,2 | E,,2 A,,2 | G,,2 C,2 | x4 | x4 | x4 | x4 | x4 | x4 | %75
 x4 | x4 | x4 |] %78

